icon/lg/truffle.svg

<?xml version="1.0" encoding="UTF-8"?>
<svg viewBox="0 0 512 539" version="1.1" xmlns="http://www.w3.org/2000/svg" xmlns:xlink="http://www.w3.org/1999/xlink" preserveAspectRatio="xMidYMid" height="1em" width="1em">
  <g>
    <path d="M175.560496,463.556879 L175.560496,510.861751 C175.400685,513.784175 175.766608,516.711563 176.640868,519.504729 C177.340439,521.201578 178.58178,522.619284 180.17137,523.536833 C181.966973,524.599212 184.028147,525.12789 186.113418,525.060929 C188.34028,525.122011 190.537467,524.539221 192.441313,523.382494 C194.102906,522.385104 195.39595,520.875424 196.126154,519.080297 C196.988548,515.829885 197.333607,512.463926 197.148649,509.106146 L197.148649,463.556879 L211.116319,463.556879 L211.116319,507.157617 C211.329179,512.294874 210.914547,517.438913 209.881608,522.475753 C208.931664,525.546074 207.310526,528.366591 205.135687,530.732884 C202.917349,533.252807 200.152462,535.23244 197.052187,536.520592 C193.668174,537.873015 190.046194,538.52917 186.402803,538.449829 C181.532102,538.559656 176.729759,537.288841 172.550887,534.78428 C168.894858,532.640972 165.959885,529.457501 164.120125,525.6397 C162.856475,522.890538 162.066694,518.719771 161.750782,513.127397 L161.673416,511.490893 C161.66267,511.211695 161.652999,510.929274 161.644403,510.643629 L161.60572,508.891075 C161.597124,508.293996 161.592826,507.684023 161.592826,507.061155 L161.612118,463.556879 L175.560496,463.556879 Z M40.4174988,463.556879 L40.4174988,477.273748 L27.1057689,477.273748 L27.1057689,536.694224 L12.9837597,536.694224 L12.9837597,477.273748 L0,477.273748 L0,463.556879 L40.4174988,463.556879 Z M75.4138438,463.556879 L94.0888504,463.556879 C102.165919,463.556879 107.921474,464.277127 111.355515,465.717623 C114.799102,467.183585 117.689759,469.702779 119.612646,472.913674 C121.776609,476.485367 122.868177,480.603859 122.757301,484.778477 C122.914561,489.065119 121.69784,493.289844 119.284675,496.836203 C116.666854,500.307726 113.032105,502.877001 108.886092,504.186593 L126.249218,536.694224 L110.98896,536.694224 L94.5325747,505.729982 L89.3429293,505.729982 L89.3429293,536.694224 L75.4138438,536.694224 L75.4138438,463.556879 Z M289.578356,463.556879 L289.578356,477.119409 L267.102754,477.119409 L267.102754,490.411847 L289.578356,490.411847 L289.578356,503.781454 L267.102754,503.781454 L267.102754,536.694224 L253.270131,536.694224 L253.270131,463.556879 L289.578356,463.556879 Z M364.413429,463.556879 L364.413429,477.119409 L341.937827,477.119409 L341.937827,490.411847 L364.413429,490.411847 L364.413429,503.781454 L341.937827,503.781454 L341.937827,536.694224 L328.105204,536.694224 L328.105204,463.556879 L364.413429,463.556879 Z M416.753608,463.556879 L416.753608,523.421078 L437.029881,523.421078 L437.029881,536.694224 L402.824522,536.694224 L402.824522,463.556879 L416.753608,463.556879 Z M512,463.556879 L512,477.177286 L485.897434,477.177286 L485.897434,490.411847 L512,490.411847 L512,503.781454 L485.897434,503.781454 L485.897434,523.035231 L512,523.035231 L512,536.694224 L472.084103,536.694224 L472.084103,463.556879 L512,463.556879 Z M97.0019971,477.04224 L89.2850522,477.04224 L89.3429293,492.148159 L97.6193527,492.148159 C102.056596,492.148159 105.104789,491.569388 106.763932,490.411847 C108.530619,489.035299 109.475626,486.854514 109.271939,484.624138 C109.318483,483.114529 108.886296,481.628886 108.037228,480.379818 C107.22672,479.198518 106.066177,478.301121 104.718942,477.813934 C102.200427,477.168083 99.598532,476.907893 97.0019971,477.04224 Z" fill="#5E464D"/>
    <g transform="translate(56.491359, 0.000000)">
      <ellipse fill="#5E464D" cx="199.035978" cy="197.052187" rx="194.775689" ry="197.052187"/>
      <path d="M137.782728,371.783112 C145.750474,374.503335 172.50898,383.20419 173.64723,374.696258 C174.264585,370.027507 160.142576,365.243001 141.023845,355.114511 C113.831958,340.743295 88.9560058,322.364356 67.2305598,300.594295 C35.5195187,269.500766 17.2852898,227.199018 16.4530625,182.795132 C14.8325041,123.181733 38.1376776,74.9894118 76.4716013,43.890124 C29.593862,80.0720945 1.527446,135.460741 0.0738470296,194.659934 C-1.06440234,237.778364 10.993324,274.105882 33.6425572,307.172991 C40.6756194,316.256822 48.896927,324.354842 58.0859801,331.249859 C79.7898876,347.667659 111.525823,362.850748 137.782728,371.763819" fill="#FFFFFF"/>
      <path d="M396.493305,151.888767 C384.416286,95.0920532 346.87335,55.3304947 296.655331,27.2408154 C335.143593,54.5780926 389.162208,112.70598 357.233348,163.985079 C330.224041,205.058518 264.63001,197.013603 228.649754,177.489732 C185.975049,154.338897 132.573791,102.24952 185.241939,51.3369758 C219.38942,18.3856212 328.005419,55.3304947 308.886689,104.583895 C297.735703,133.233053 254.327888,126.866574 234.804018,112.860319 C220.411916,102.519613 208.296312,84.7513471 214.720669,66.4043106 C216.765659,60.5201402 216.476274,51.3948529 208.161266,58.1085949 C202.026294,63.1246091 198.843055,71.3817401 197.762682,79.098685 C188.67598,143.322959 303.09898,193.116545 337.053537,130.975847 C354.667464,98.7190173 326.114768,51.8771619 290.173097,32.7005539 C263.16379,18.2312823 235.054818,8.06420739 200.59866,10.5336298 C145.499673,14.3921022 99.2751734,48.9254305 93.4681724,105.220543 C87.6804637,161.168394 125.088354,211.521459 169.132817,241.636836 C215.434486,273.27631 277.671646,294.131354 334.6227,275.263424 C385.67029,258.344022 406.756842,199.753118 396.493305,151.927352" fill="#FFFFFF"/>
      <path d="M324.648548,108.384491 C330.127579,71.5746637 296.848255,46.3016692 266.115522,34.8227137 C229.884465,21.3180602 182.020115,27.221523 155.628163,57.2211462 C136.335801,79.2530239 137.589805,111.23976 147.544664,137.13011 C162.592706,176.235729 196.566556,204.499039 236.115898,216.711104 C264.22487,225.392667 298.19872,229.17397 326.674246,220.010098 C368.210702,206.640491 381.734648,163.329138 373.149547,123.644749 C371.311443,115.06576 368.488929,106.727693 364.738077,98.7961867 C359.490555,87.7802479 343.420017,65.4782773 365.567649,92.6419232 C367.889215,95.6692061 370.028039,98.8323461 371.972713,102.114473 C376.541431,109.619631 380.163771,117.661355 382.757143,126.056295 C394.834162,163.09763 385.361612,206.312521 351.889364,228.672369 C326.21123,245.784694 293.568553,247.829685 263.781146,243.54678 C223.845956,237.759072 186.206557,218.466709 160.046114,187.425299 C136.16217,159.123403 119.860124,118.474396 129.679936,81.3173066 C136.875987,54.1343683 158.94645,33.8388033 185.376986,25.3694563 C218.810649,14.5464411 255.620477,19.5817476 285.697269,37.1570896 C300.783896,45.9351144 314.635812,58.0893025 322.352757,74.0247937 C325.843097,81.2035759 327.71979,89.0593444 327.851081,97.0405818 C327.927807,100.273164 327.675711,103.505174 327.098678,106.686763 C326.886462,107.844305 324.436332,111.104714 324.783595,108.423075" fill="#3FE0C5"/>
    </g>
  </g>
</svg>

<svg width="512" height="539" xmlns="http://www.w3.org/2000/svg" preserveAspectRatio="xMidYMid"><path d="M175.56 463.557v47.305c-.16 2.922.207 5.85 1.08 8.643a8.315 8.315 0 0 0 3.531 4.032 10.977 10.977 0 0 0 5.942 1.524 11.575 11.575 0 0 0 6.328-1.679 8.952 8.952 0 0 0 3.685-4.302 32.025 32.025 0 0 0 1.023-9.974v-45.55h13.967v43.602a63.221 63.221 0 0 1-1.234 15.318 21.665 21.665 0 0 1-4.746 8.257 22.032 22.032 0 0 1-8.084 5.788 27.106 27.106 0 0 1-10.65 1.929 25.813 25.813 0 0 1-13.851-3.666 21.337 21.337 0 0 1-8.43-9.144c-1.265-2.75-2.054-6.92-2.37-12.513l-.078-1.636-.029-.847-.038-1.753a127.16 127.16 0 0 1-.013-1.83l.02-43.504h13.947Zm-135.143 0v13.717H27.106v59.42H12.984v-59.42H0v-13.717h40.417Zm34.997 0h18.675c8.077 0 13.832.72 17.267 2.16a17.71 17.71 0 0 1 8.257 7.197 21.781 21.781 0 0 1 3.144 11.864 20.122 20.122 0 0 1-3.472 12.058 20.913 20.913 0 0 1-10.399 7.35l17.363 32.508h-15.26L94.533 505.73h-5.19v30.964h-13.93v-73.137Zm214.164 0v13.562h-22.475v13.293h22.475v13.37h-22.475v32.912H253.27v-73.137h36.308Zm74.835 0v13.562h-22.475v13.293h22.475v13.37h-22.475v32.912h-13.833v-73.137h36.308Zm52.34 0v59.864h20.277v13.273h-34.205v-73.137h13.929Zm95.247 0v13.62h-26.103v13.235H512v13.37h-26.103v19.253H512v13.66h-39.916v-73.138H512ZM97.002 477.042h-7.717l.058 15.106h8.276c4.438 0 7.486-.579 9.145-1.736a6.579 6.579 0 0 0 2.508-5.788 7.157 7.157 0 0 0-1.235-4.244 6.849 6.849 0 0 0-3.318-2.566 25.717 25.717 0 0 0-7.717-.772Z" fill="#5E464D"/><g transform="translate(56.491)"><ellipse fill="#5E464D" cx="199.036" cy="197.052" rx="194.776" ry="197.052"/><path d="M137.783 371.783c7.967 2.72 34.726 11.421 35.864 2.913.618-4.668-13.504-9.453-32.623-19.581a306.749 306.749 0 0 1-73.793-54.52 169.426 169.426 0 0 1-50.778-117.8C14.833 123.182 38.138 74.99 76.472 43.89A196.55 196.55 0 0 0 .074 194.66c-1.138 43.118 10.92 79.446 33.569 112.513a128.294 128.294 0 0 0 24.443 24.077c21.704 16.418 53.44 31.6 79.697 40.514" fill="#FFF"/><path d="M396.493 151.889c-12.077-56.797-49.62-96.559-99.838-124.648 38.489 27.337 92.507 85.465 60.578 136.744-27.009 41.074-92.603 33.029-128.583 13.505-42.675-23.151-96.076-75.24-43.408-126.153 34.147-32.951 142.763 3.993 123.645 53.247-11.151 28.65-54.56 22.283-74.083 8.276-14.392-10.34-26.508-28.109-20.083-46.456 2.045-5.884 1.755-15.01-6.56-8.295-6.135 5.016-9.318 13.273-10.398 20.99-9.087 64.224 105.336 114.018 139.29 51.877 17.614-32.257-10.938-79.099-46.88-98.275-27.01-14.47-55.118-24.637-89.574-22.167-55.1 3.858-101.324 38.391-107.13 94.687-5.789 55.947 31.62 106.3 75.664 136.416 46.301 31.64 108.539 52.494 165.49 33.626 51.047-16.919 72.134-75.51 61.87-123.336" fill="#FFF"/><path d="M324.649 108.384c5.479-36.81-27.8-62.082-58.533-73.561-36.232-13.505-84.096-7.601-110.488 22.398-19.292 22.032-18.038 54.019-8.083 79.91 15.048 39.105 49.022 67.368 88.57 79.58 28.11 8.682 62.084 12.463 90.56 3.3 41.536-13.37 55.06-56.682 46.475-96.366a113.98 113.98 0 0 0-8.412-24.849c-5.247-11.016-21.318-33.318.83-6.154a95.883 95.883 0 0 1 6.405 9.472 106.494 106.494 0 0 1 10.784 23.942c12.077 37.042 2.605 80.257-30.868 102.616-25.678 17.113-58.32 19.158-88.108 14.875-39.935-5.788-77.574-25.08-103.735-56.122-23.884-28.302-40.186-68.95-30.366-106.108 7.196-27.183 29.266-47.478 55.697-55.948 33.434-10.823 70.243-5.787 100.32 11.788 15.087 8.778 28.939 20.932 36.656 36.868a54.694 54.694 0 0 1 5.498 23.016 47.71 47.71 0 0 1-.752 9.646c-.213 1.157-2.663 4.418-2.315 1.736" fill="#3FE0C5"/></g></svg>
